svgs/ffshare.svg

<svg xmlns="http://www.w3.org/2000/svg" viewBox="0 0 192 192"><path d="M160.459 145.419V46.581m-15.04-15.04H46.581m-15.04 15.04v98.838m14.546 10.412 65.62-20.88m.782-11.822-37.43-19.961m-.02-14.323 37.567-20.034M31.541 16.5a15.05 15.05 0 0 0-10.636 4.405A15.05 15.05 0 0 0 16.5 31.541c0 3.987 1.586 7.815 4.405 10.635a15.05 15.05 0 0 0 10.636 4.405c3.987 0 7.815-1.586 10.635-4.405a15.049 15.049 0 0 0 4.405-10.635 15.05 15.05 0 0 0-4.405-10.636A15.049 15.049 0 0 0 31.541 16.5Z" fill="none" stroke="#000" stroke-width="12" stroke-linecap="round" stroke-linejoin="round"/><path d="M31.541 16.5a15.05 15.05 0 0 0-10.636 4.405A15.05 15.05 0 0 0 16.5 31.541c0 3.987 1.586 7.815 4.405 10.635a15.05 15.05 0 0 0 10.636 4.405c3.987 0 7.815-1.586 10.635-4.405a15.049 15.049 0 0 0 4.405-10.635 15.05 15.05 0 0 0-4.405-10.636A15.049 15.049 0 0 0 31.541 16.5Zm0 128.919a15.05 15.05 0 0 0-10.636 4.405 15.049 15.049 0 0 0-4.405 10.635 15.05 15.05 0 0 0 4.405 10.636 15.05 15.05 0 0 0 10.636 4.405c3.987 0 7.815-1.586 10.635-4.405a15.05 15.05 0 0 0 4.405-10.636c0-3.987-1.586-7.815-4.405-10.635a15.049 15.049 0 0 0-10.635-4.405Zm128.918 0a15.049 15.049 0 0 0-10.635 4.405 15.049 15.049 0 0 0-4.405 10.635 15.05 15.05 0 0 0 4.405 10.636 15.049 15.049 0 0 0 10.635 4.405 15.05 15.05 0 0 0 10.636-4.405 15.05 15.05 0 0 0 4.405-10.636c0-3.987-1.586-7.815-4.405-10.635a15.05 15.05 0 0 0-10.636-4.405Zm0-128.919a15.049 15.049 0 0 0-10.635 4.405 15.05 15.05 0 0 0-4.405 10.636c0 3.987 1.586 7.815 4.405 10.635a15.049 15.049 0 0 0 10.635 4.405 15.05 15.05 0 0 0 10.636-4.405 15.049 15.049 0 0 0 4.405-10.635 15.05 15.05 0 0 0-4.405-10.636 15.05 15.05 0 0 0-10.636-4.405ZM61.622 80.959a15.046 15.046 0 0 0-10.636 4.406A15.047 15.047 0 0 0 46.581 96c0 3.987 1.586 7.816 4.405 10.635a15.046 15.046 0 0 0 10.636 4.406c3.987 0 7.815-1.586 10.635-4.406A15.047 15.047 0 0 0 76.662 96c0-3.987-1.586-7.816-4.405-10.635a15.046 15.046 0 0 0-10.635-4.406Zm64.459 34.379a15.041 15.041 0 1 0 0 30.081 15.041 15.041 0 1 0 0-30.081Zm0-68.757a15.047 15.047 0 0 0-10.635 4.405 15.045 15.045 0 0 0 0 21.271 15.047 15.047 0 0 0 10.635 4.405 15.045 15.045 0 0 0 15.041-15.04 15.045 15.045 0 0 0-15.041-15.041Z" fill="none" stroke="#000" stroke-width="12" stroke-linecap="round" stroke-linejoin="round"/></svg>

<svg
    xmlns="http://www.w3.org/2000/svg"
    viewBox="0 0 192 192"
    id="vector">
    <path
        id="path"
        d="M 160.459 145.419 L 160.459 46.581 M 145.419 31.541 L 46.581 31.541 M 31.541 46.581 L 31.541 145.419 M 46.087 155.831 L 111.707 134.951 M 112.489 123.129 L 75.059 103.168 M 75.039 88.845 L 112.606 68.811 M 31.541 16.5 C 27.553 16.5 23.725 18.086 20.905 20.905 C 18.086 23.725 16.5 27.553 16.5 31.541 C 16.5 35.528 18.086 39.356 20.905 42.176 C 23.725 44.995 27.553 46.581 31.541 46.581 C 35.528 46.581 39.356 44.995 42.176 42.176 C 44.995 39.356 46.581 35.528 46.581 31.541 C 46.581 27.553 44.995 23.725 42.176 20.905 C 39.356 18.086 35.528 16.5 31.541 16.5 Z"
        fill="none"
        stroke="#000000"
        stroke-width="12"
        stroke-linecap="round"
        stroke-linejoin="round"/>
    <path
        id="path_1"
        d="M 31.541 16.5 C 27.553 16.5 23.725 18.086 20.905 20.905 C 18.086 23.725 16.5 27.553 16.5 31.541 C 16.5 35.528 18.086 39.356 20.905 42.176 C 23.725 44.995 27.553 46.581 31.541 46.581 C 35.528 46.581 39.356 44.995 42.176 42.176 C 44.995 39.356 46.581 35.528 46.581 31.541 C 46.581 27.553 44.995 23.725 42.176 20.905 C 39.356 18.086 35.528 16.5 31.541 16.5 Z M 31.541 145.419 C 27.553 145.419 23.725 147.005 20.905 149.824 C 18.086 152.644 16.5 156.472 16.5 160.459 C 16.5 164.447 18.086 168.275 20.905 171.095 C 23.725 173.914 27.553 175.5 31.541 175.5 C 35.528 175.5 39.356 173.914 42.176 171.095 C 44.995 168.275 46.581 164.447 46.581 160.459 C 46.581 156.472 44.995 152.644 42.176 149.824 C 39.356 147.005 35.528 145.419 31.541 145.419 Z M 160.459 145.419 C 156.472 145.419 152.644 147.005 149.824 149.824 C 147.005 152.644 145.419 156.472 145.419 160.459 C 145.419 164.447 147.005 168.275 149.824 171.095 C 152.644 173.914 156.472 175.5 160.459 175.5 C 164.447 175.5 168.275 173.914 171.095 171.095 C 173.914 168.275 175.5 164.447 175.5 160.459 C 175.5 156.472 173.914 152.644 171.095 149.824 C 168.275 147.005 164.447 145.419 160.459 145.419 Z M 160.459 16.5 C 156.472 16.5 152.644 18.086 149.824 20.905 C 147.005 23.725 145.419 27.553 145.419 31.541 C 145.419 35.528 147.005 39.356 149.824 42.176 C 152.644 44.995 156.472 46.581 160.459 46.581 C 164.447 46.581 168.275 44.995 171.095 42.176 C 173.914 39.356 175.5 35.528 175.5 31.541 C 175.5 27.553 173.914 23.725 171.095 20.905 C 168.275 18.086 164.447 16.5 160.459 16.5 Z M 61.622 80.959 C 57.634 80.959 53.806 82.545 50.986 85.365 C 48.167 88.184 46.581 92.013 46.581 96 C 46.581 99.987 48.167 103.816 50.986 106.635 C 53.806 109.455 57.634 111.041 61.622 111.041 C 65.609 111.041 69.437 109.455 72.257 106.635 C 75.076 103.816 76.662 99.987 76.662 96 C 76.662 92.013 75.076 88.184 72.257 85.365 C 69.437 82.545 65.609 80.959 61.622 80.959 Z M 126.081 115.338 C 122.899 115.328 119.794 116.328 117.216 118.194 C 114.638 120.059 112.717 122.696 111.732 125.722 C 110.747 128.747 110.747 132.009 111.732 135.035 C 112.717 138.061 114.638 140.698 117.216 142.563 C 119.794 144.429 122.899 145.429 126.081 145.419 C 129.263 145.429 132.368 144.429 134.946 142.563 C 137.524 140.698 139.445 138.061 140.43 135.035 C 141.415 132.009 141.415 128.747 140.43 125.722 C 139.445 122.696 137.524 120.059 134.946 118.194 C 132.368 116.328 129.263 115.328 126.081 115.338 Z M 126.081 46.581 C 122.094 46.581 118.265 48.167 115.446 50.986 C 112.626 53.806 111.041 57.634 111.041 61.622 C 111.041 65.609 112.626 69.437 115.446 72.257 C 118.265 75.076 122.094 76.662 126.081 76.662 C 130.069 76.662 133.897 75.076 136.716 72.257 C 139.536 69.437 141.122 65.609 141.122 61.622 C 141.122 57.634 139.536 53.806 136.716 50.986 C 133.897 48.167 130.069 46.581 126.081 46.581 Z"
        fill="none"
        stroke="#000000"
        stroke-width="12"
        stroke-linecap="round"
        stroke-linejoin="round"/>
</svg>
